X: 10043
T: MRS. DONALDSON'S STRATHSPEY
R: strathspey
B: K\"ohler's Violin Repository, v.1, 1885 p.4 #3
F: http://www.archive.org/details/klersviolinrepos01edin
Z: 2011 John Chambers <jc:trillian.mit.edu>
M: C
L: 1/8
K: Bb
D |\
B,2 (D>F) (B>c)(d>c) | (B>G)(F>D) {D}C>B,C<D | B,2 (D>F) (B>c)(d>c) | (B>G)(F>D) B,<BB :|
"Slowly"d |\
f>gf<d B>cd>B | ((3ege) ((3dfd) {d}c>Bc<d | f>gf<d B>cd>c | B>GF>D B,<BB>d |
f>gf<d B>cd>B | ((3ege) ((3dfd) c>Bcd | B<Fd<B f<db<g | f>dc>d B2-B |]

%%sep 2 1 500

